svg/color/fscc.svg

<?xml version="1.0" encoding="UTF-8" ?>
<!DOCTYPE svg PUBLIC "-//W3C//DTD SVG 1.1//EN" "http://www.w3.org/Graphics/SVG/1.1/DTD/svg11.dtd">
<svg width="250pt" height="250pt" viewBox="0 0 250 250" version="1.1" xmlns="http://www.w3.org/2000/svg">
<g id="#ffffffff">
<path fill="#ffffff" opacity="1.00" d=" M 0.00 0.00 L 250.00 0.00 L 250.00 250.00 L 0.00 250.00 L 0.00 0.00 M 112.37 4.79 C 90.44 7.48 69.22 16.16 51.94 29.97 C 33.83 44.33 19.85 63.93 12.64 85.92 C 4.88 108.75 4.26 133.92 10.75 157.13 C 17.40 181.52 32.13 203.53 51.95 219.19 C 71.46 234.77 95.98 243.83 120.89 245.07 C 139.17 246.01 157.68 242.67 174.53 235.50 C 201.21 224.19 223.48 202.83 235.82 176.60 C 245.79 155.76 249.64 131.99 246.58 109.08 C 243.29 83.23 231.42 58.45 213.00 39.98 C 187.39 13.39 148.93 0.18 112.37 4.79 Z" />
<path fill="#ffffff" opacity="1.00" d=" M 57.51 44.49 C 83.00 21.88 119.85 13.21 152.79 21.74 C 186.95 29.98 215.82 56.68 227.16 89.88 C 229.98 98.04 231.63 106.58 232.54 115.15 C 232.37 119.76 233.90 124.33 232.77 128.91 C 232.04 152.95 222.55 176.60 206.53 194.54 C 196.29 206.26 183.39 215.60 169.17 221.89 C 147.60 231.21 122.94 233.22 100.21 227.16 C 60.91 217.43 29.03 183.03 22.52 143.03 C 21.64 135.13 19.74 127.09 21.15 119.14 C 22.14 90.63 35.95 63.05 57.51 44.49 M 132.82 79.12 C 132.81 111.99 132.81 144.87 132.82 177.75 C 142.99 177.73 153.17 177.76 163.34 177.73 C 163.33 165.26 163.38 152.79 163.31 140.32 C 176.38 140.34 189.44 140.30 202.51 140.34 C 202.68 132.42 202.61 124.49 202.55 116.57 C 189.47 116.59 176.40 116.56 163.32 116.59 C 163.35 112.56 163.35 108.54 163.32 104.51 C 178.65 104.45 193.97 104.53 209.29 104.47 C 209.28 96.03 209.28 87.60 209.29 79.16 C 183.80 79.07 158.31 79.15 132.82 79.12 M 50.61 86.87 C 50.54 114.57 50.54 142.28 50.62 169.99 C 74.34 156.17 98.21 142.58 121.95 128.79 C 121.80 127.50 120.38 127.19 119.50 126.53 C 96.56 113.27 73.60 100.05 50.61 86.87 Z" />
</g>
<g id="#0033a1ff">
<path fill="#0033a1" opacity="1.00" d=" M 112.37 4.79 C 148.93 0.18 187.39 13.39 213.00 39.98 C 231.42 58.45 243.29 83.23 246.58 109.08 C 249.64 131.99 245.79 155.76 235.82 176.60 C 223.48 202.83 201.21 224.19 174.53 235.50 C 157.68 242.67 139.17 246.01 120.89 245.07 C 95.98 243.83 71.46 234.77 51.95 219.19 C 32.13 203.53 17.40 181.52 10.75 157.13 C 4.26 133.92 4.88 108.75 12.64 85.92 C 19.85 63.93 33.83 44.33 51.94 29.97 C 69.22 16.16 90.44 7.48 112.37 4.79 M 57.51 44.49 C 35.95 63.05 22.14 90.63 21.15 119.14 C 19.74 127.09 21.64 135.13 22.52 143.03 C 29.03 183.03 60.91 217.43 100.21 227.16 C 122.94 233.22 147.60 231.21 169.17 221.89 C 183.39 215.60 196.29 206.26 206.53 194.54 C 222.55 176.60 232.04 152.95 232.77 128.91 C 233.90 124.33 232.37 119.76 232.54 115.15 C 231.63 106.58 229.98 98.04 227.16 89.88 C 215.82 56.68 186.95 29.98 152.79 21.74 C 119.85 13.21 83.00 21.88 57.51 44.49 Z" />
<path fill="#0033a1" opacity="1.00" d=" M 132.82 79.12 C 158.31 79.15 183.80 79.07 209.29 79.16 C 209.28 87.60 209.28 96.03 209.29 104.47 C 193.97 104.53 178.65 104.45 163.32 104.51 C 163.35 108.54 163.35 112.56 163.32 116.59 C 176.40 116.56 189.47 116.59 202.55 116.57 C 202.61 124.49 202.68 132.42 202.51 140.34 C 189.44 140.30 176.38 140.34 163.31 140.32 C 163.38 152.79 163.33 165.26 163.34 177.73 C 153.17 177.76 142.99 177.73 132.82 177.75 C 132.81 144.87 132.81 111.99 132.82 79.12 Z" />
<path fill="#0033a1" opacity="1.00" d=" M 50.61 86.87 C 73.60 100.05 96.56 113.27 119.50 126.53 C 120.38 127.19 121.80 127.50 121.95 128.79 C 98.21 142.58 74.34 156.17 50.62 169.99 C 50.54 142.28 50.54 114.57 50.61 86.87 Z" />
</g>
</svg>

<?xml version="1.0" encoding="utf-8"?>
<!-- Generator: Adobe Illustrator 26.0.3, SVG Export Plug-In . SVG Version: 6.00 Build 0)  -->
<svg version="1.1" id="Layer_1" xmlns="http://www.w3.org/2000/svg" xmlns:xlink="http://www.w3.org/1999/xlink" x="0px" y="0px"
	 viewBox="0 0 250 250" style="enable-background:new 0 0 250 250;" xml:space="preserve">
<style type="text/css">
	.st0{fill:#FFFFFF;}
	.st1{fill:#0033A1;}
</style>
<g id="_x23_ffffffff">
	<path class="st0" d="M57.5,44.5c25.5-22.6,62.3-31.3,95.3-22.8c34.2,8.2,63,34.9,74.4,68.1c2.8,8.2,4.5,16.7,5.4,25.3
		c-0.2,4.6,1.4,9.2,0.2,13.8c-0.7,24-10.2,47.7-26.2,65.6c-10.2,11.7-23.1,21.1-37.4,27.4c-21.6,9.3-46.2,11.3-69,5.3
		C60.9,217.4,29,183,22.5,143c-0.9-7.9-2.8-15.9-1.4-23.9C22.1,90.6,36,63,57.5,44.5 M132.8,79.1c0,32.9,0,65.7,0,98.6
		c10.2,0,20.3,0,30.5,0c0-12.5,0-24.9,0-37.4c13.1,0,26.1,0,39.2,0c0.2-7.9,0.1-15.8,0-23.8c-13.1,0-26.2,0-39.2,0c0-4,0-8,0-12.1
		c15.3-0.1,30.6,0,46,0c0-8.4,0-16.9,0-25.3C183.8,79.1,158.3,79.2,132.8,79.1 M50.6,86.9c-0.1,27.7-0.1,55.4,0,83.1
		c23.7-13.8,47.6-27.4,71.3-41.2c-0.1-1.3-1.6-1.6-2.4-2.3C96.6,113.3,73.6,100.1,50.6,86.9z"/>
</g>
<g id="_x23_0033a1ff">
	<path class="st1" d="M112.4,4.8c36.6-4.6,75,8.6,100.6,35.2c18.4,18.5,30.3,43.3,33.6,69.1c3.1,22.9-0.8,46.7-10.8,67.5
		c-12.3,26.2-34.6,47.6-61.3,58.9c-16.9,7.2-35.4,10.5-53.6,9.6C96,243.8,71.5,234.8,52,219.2c-19.8-15.7-34.6-37.7-41.2-62.1
		c-6.5-23.2-5.9-48.4,1.9-71.2c7.2-22,21.2-41.6,39.3-55.9C69.2,16.2,90.4,7.5,112.4,4.8 M57.5,44.5C36,63,22.1,90.6,21.1,119.1
		c-1.4,7.9,0.5,16,1.4,23.9c6.5,40,38.4,74.4,77.7,84.1c22.7,6.1,47.4,4.1,69-5.3c14.2-6.3,27.1-15.6,37.4-27.4
		c16-17.9,25.5-41.6,26.2-65.6c1.1-4.6-0.4-9.2-0.2-13.8c-0.9-8.6-2.6-17.1-5.4-25.3c-11.3-33.2-40.2-59.9-74.4-68.1
		C119.8,13.2,83,21.9,57.5,44.5z"/>
	<path class="st1" d="M132.8,79.1c25.5,0,51-0.1,76.5,0c0,8.4,0,16.9,0,25.3c-15.3,0.1-30.6,0-46,0c0,4,0,8,0,12.1
		c13.1,0,26.1,0,39.2,0c0.1,7.9,0.1,15.8,0,23.8c-13.1,0-26.1,0-39.2,0c0.1,12.5,0,24.9,0,37.4c-10.2,0-20.3,0-30.5,0
		C132.8,144.9,132.8,112,132.8,79.1z"/>
	<path class="st1" d="M50.6,86.9c23,13.2,45.9,26.4,68.9,39.7c0.9,0.7,2.3,1,2.4,2.3c-23.7,13.8-47.6,27.4-71.3,41.2
		C50.5,142.3,50.5,114.6,50.6,86.9z"/>
</g>
</svg>
